X: 31966
T: Peat-Fire Flame, The
R: polka
M: 2/4
K: Eminor
|:E>F GF|ED B2|BA AG/A/|BA AB|
E>F GF|ED BA|G/F/E FG|E2 E2:|
|:G>A Bg|ed B2|BA A G/A/|BA AB|
G>A Bg|ed BA|G/F/E FG|E2E2:|

